X:1218
T:The Star of Munster
M:C|
L:1/8
R:Reel
B:O'Neill's 1218
N:Collected by F. O'Neill
Z:Transcribed by Trish O'Neil
K:C
ed|c2AcB2GB|AGEF GEDF|EAAB cBcd|eaaf gfed|
~c2Ac~B2GB|AGEF GEDF|EAAB cded|cABGA2z2||
eaab ageg|agbg agef|agfga gfef|geaf gfed|
eaab ageg|agbg agef|~g2ge~a2ag|b2ba gfed||
